X:106
T:My Uncle Toby
M:3/8
L:1/8
B:Thompson's Compleat Collection of 200 Favourite Country Dances, vol. 2 (London, 1765)
Z:Transcribed and edited by Flynn Titford-Mock, 2007
Z:abc's:AK/Fiddler's Companion
K:D
d2d | dfd | ecA | (c/d/ec) | d2d | dfd | ecA | d3 :: aaf | b2g | a2f | g2e | ffd | gge | adc | d3 :|

